!!!OTL: Drei Fraeulein.
!!!ARE: Europa, Mitteleuropa, Deutschland
!!!SCT: A0184
!!!TXL: @@GMH
!!!YEM: Copyright 1995, estate of Helmut Schaffrath.
**kern	**text	**text
*M4/2	*	*
*met(c|)	*	*
*clefC3	*	*
*k[b-]	*	*
*G:	*	*
=1	=1	=1
1ryy	.	.
2ryy	.	.
{2G	A. Mit	B. Dort
=2	=2	=2
2G	luſt	o-
2G	thet	-ben
2G	ich	auf
2G	auß-	dem
=3	=3	=3
1A	-rei-	ber-
1A}	-ten	-ge,
=4	=4	=4
{1d	durch	da
2d	ei-	ſtet
2A	-nen	ein
=5	=5	=5
*lig	*	*
2d	grü-	ho-
1c	.	.
*Xlig	*	*
2B-	-nen	-hes
=6	=6	=6
0A	wald,	haus,
=7	=7	=7
1r	.	.
2r}	.	.
{2d	dar-	dar-
=8	=8	=8
2d	-inn	-ein
2d	da	gehnd
2d	hört	al-
2d	ich	-le
=9	=9	=9
2c	ſin-	mor-
1A}	-gen	-gen
{2B-	[ja	[ja
=10	=10	=10
1G	ſin-	mor-
2A	.	.
2.c/	.	.
=11	=11	=11
.	.	.
4B-	.	.
4A	.	.
4G	.	.
1A	.	.
=12	=12	=12
0G}	-gen]	-gen]
=13	=13	=13
{1d	drey	drey
2f	vo-	fre-
2.d	-ge-	-we-
=14	=14	=14
.	.	.
4B-	-lein	-lein
2c/	wol	ein
1A	ge-	vnd
=15	=15	=15
0/llG}	-ſtalt.	aus.
==	==	==
!!!GTL: Liebeslieder
!!!AGN: Romanze, Ballade, Lied
!! Joh. Ott 1534 No. 41. Forster V 1556 No. 45.
!!!ONB: ESAC (Essen Associative Code) Database: ALTDEU
!!!AMT: simple quadruple
!!!AIN: vox
!!!EED: Helmut Schaffrath
!!!EEV: 1.0
!!!RDF**kern: l = terminal long
!!!URL-scan: https://rosdok.uni-rostock.de/mcrviewer/recordIdentifier/rosdok_ppn738218359/iview2/phys_0343.iview2?x=-495.6391625615763&y=1761.343148399843&scale=0.4629418472063854&rotation=0&layout=singlePageLayout&logicalDiv=log_0009
!!!ENC: Anna Maria Matuszewska
!!!EEV: 2024/07/03
*-	*-	*-
